!!!!SEGMENT: pl-kozmzk--mzk-m-159--037_walczynski-franciszek--praeludia-organi-op-5-adagio.krn
!!!cenid: 18xx:2780
!!!COM: Walczyński, Franciszek
!!!COM-rismid: pe30021989
!!!CDT: ~1852-1937
!!!CNT: Polish
!!!GTL: Praeludia organi op. 5
!!!OTL: 37. Adagio
!!!PDT: 1894
!!!AGN: Secular; Prelude
!!!SMS-siglum: PL-KOZmzk
!!!SMS-shelfmark: mzk/m/159
!!!SMS-shelfwork: 037 G
!!!SMS-variant:
!!!SMS-altvar:
!!!NIFC-rismid: 1001118839
!!!URL-scan: https://repozytorium.nifc.pl/islandora/object/pl-kozmzk%3A2265/datastream/PDF/view
!!!ONB-nifc: UWAGA: numeracja plików zgodna z numeracją źrodłową
!!!OMD:37. Adagio.
**kern	**kern	**dynam
*part2	*part1	*part1
*staff2	*staff1	*
*Iorgan	*Iorgan	*
*I"Organo	*I"Organo	*
*clefF4	*clefG2	*
*k[b-e-a-d-g-]	*k[b-e-a-d-g-]	*
*D-:	*D-:	*
*M3/2	*M3/2	*
=1	=1	=1
*^	*^	*
4A-/	(4D-\	(2.f/	(4d-\	pp
4An/	4C\	.	4e-\	.
4B-/	4BB-\	.	4d-\)	.
2.B-/	2.GG-\)	2a-/	[2.d-\	.
.	.	4g-/	.	.
=2	=2	=2	=2	=2
4A-X/	2.AA-\	2f/	4d-\]	>
2G-/	.	.	2c\	.
.	.	4e-/	.	.
2.F/	2.D-\	2.d-/)	2.d-\	]]
=3	=3	=3	=3	=3
2.E-/	2.E-\	(2.g-/	4B-\	.
.	.	.	4An\	.
.	.	.	4B-\	.
4c/	4AA-\	4b-/	4g-\	.
2A-X/	4BB-\	4a-/	4f\	.
.	4C\	4g-/	4e-\	.
=4	=4	=4	=4	=4
([2.A-/	1.D-\	2.g-/	4e-\	>
.	.	.	4B-\	.
.	.	.	4c\	.
4A-/]	.	2.f/)	2.d-\	.
4B-/	.	.	.	]
4A-/)	.	.	.	.
=5	=5	=5	=5	=5
(2A-/	(4C\	(4a-/	2.g-\	f
.	4BB-\	4b-/	.	.
4E-/	4AAn\	4cc/	.	.
4D-/	2BB-\	4ee-/	2f\	.
4B-/	.	4dd-/	.	.
4An/	4F\	4cc/	4e-\	.
=6	=6	=6	=6	=6
2.B-/	4G-\	4b-/	4d-\	.
.	4Dn\	4a-X/	4f\	.
.	4E-\	4g-/	2e-\	.
2.A-X/)	2A-X\	2f/)	.	.
.	.	.	4d-\	.
.	4AA-;\)	4e-;/	4c\	.
=7	=7	=7	=7	=7
!	!	!	!	!LO:DY:a
(4A-/	(4D-\	(2.f/	(4d-\	p
4An/	4C\	.	4e-\	.
4B-/)	4BB-\	.	4d-\)	.
2.B-/	4EE-\	2a-/	2.d-\	.
.	4FF\	.	.	.
.	4GG-\	4g-/	.	.
=8	=8	=8	=8	=8
(4A-X/	2AA-\	2f/	4d-\	.
2G-/	.	.	2c\	.
.	4AAn\	4e-/)	.	.
4F/	2.BB-\)	2.d-/	4ryy	.
4G-/	.	.	2ryy	.
4F/)	.	.	.	.
=9	=9	=9	=9	=9
2.B-/	(2.GG-\	(4e-/	2.d-\	pp >
.	.	4f/	.	.
.	.	4g-/	.	.
4A-/	4AA-\	4f/	2d-\	.
4A--/	4BB-\	2e-/	.	.
([4G-/	4AA-\	.	4c\	.
=10	=10	=10	=10	=10
4G-/]	1.D-\)	1.d-/)	1.A-\	] ppp
4F/	.	.	.	.
4E-/	.	.	.	.
2.F/)	.	.	.	.
*v	*v	*	*	*
*	*v	*v	*
==	==	==
*-	*-	*-
!!!system-decoration: {(s1,s2)}
!!!EED: Andrzej Borzym
!!!EST: 2021-08-08
!!!ENC: Krzysztof Stępień
!!!END: 2021-07-26
